X: 20422
T: John Egan's
R: reel
M: 4/4
K: Eminor
c~A3 GEDE|GBAF ~G3A|B2AB G~E3|Bdd^c d2ed:|
Bdef ~g3e|~a3f gfed|Bdef g2fg|afge d2ed:|

